src/assets/images/icons/transaction.svg

<svg width="43" height="39" viewBox="0 0 43 39" fill="none" xmlns="http://www.w3.org/2000/svg">
<g clip-path="url(#clip0)">
<g opacity="0.4">
<path opacity="1.51" fill-rule="evenodd" clip-rule="evenodd" d="M42.1 9.2C41.3 8.9 40.4 9.2 40.1 10L39.3 12C36.4 4.8 29.3 0 21.3 0C12.2 0 4.4 6.1 2.4 14.9C2.2 15.7 2.7 16.5 3.5 16.7C4.3 16.9 5.1 16.4 5.3 15.6C7 8.2 13.5 3 21.3 3C28.1 3 33.9 7 36.4 12.9L34.7 12.2C33.9 11.9 33 12.2 32.7 13C32.4 13.8 32.7 14.7 33.5 15L38.7 17.2C38.9 17.3 39.1 17.3 39.3 17.3C39.5 17.3 39.7 17.3 39.9 17.2C40.3 17.1 40.5 16.8 40.7 16.4L42.9 11.3C43.2 10.4 42.9 9.5 42.1 9.2V9.2ZM39.4 22.3C38.6 22.1 37.8 22.6 37.6 23.4C35.9 30.8 29.3 36.1 21.6 36.1C14.8 36.1 9 32.1 6.5 26.1L8.3 26.9C9.1 27.2 10 26.9 10.3 26.1C10.6 25.3 10.3 24.4 9.5 24.1L4.3 21.9C3.5 21.6 2.6 21.9 2.3 22.7L0.0999991 27.8C-0.200001 28.6 0.0999991 29.5 0.899999 29.8C1.1 29.9 1.3 29.9 1.5 29.9C2.1 29.9 2.7 29.5 2.9 28.9L3.7 27.1C6.6 34.3 13.6 39 21.6 39C30.8 39 38.5 32.9 40.5 24.1C40.7 23.3 40.2 22.5 39.4 22.3V22.3Z" fill="#6979F8"/>
</g>
<path fill-rule="evenodd" clip-rule="evenodd" d="M12 20C12 15.0294 16.0294 11 21 11C25.9706 11 30 15.0294 30 20C30 24.9705 25.9706 29 21 29C16.0294 29 12 24.9705 12 20ZM14.25 20C14.25 23.728 17.272 26.75 21 26.75C24.728 26.75 27.75 23.728 27.75 20C27.75 16.272 24.728 13.25 21 13.25C17.272 13.25 14.25 16.272 14.25 20Z" fill="url(#paint0_linear)"/>
</g>
<defs>
<linearGradient id="paint0_linear" x1="27.9744" y1="13.6341" x2="15.1331" y2="26.5238" gradientUnits="userSpaceOnUse">
<stop stop-color="#A5AFFB"/>
<stop offset="1" stop-color="#6979F8"/>
</linearGradient>
<clipPath id="clip0">
<rect width="43" height="39" fill="white"/>
</clipPath>
</defs>
</svg>

<svg xmlns="http://www.w3.org/2000/svg" viewBox="0 0 43 39" width="43px" height="39px"><style>.st1{fill-rule:evenodd;clip-rule:evenodd;fill:#037cff}</style><switch><g><g id="ark_1_"><g id="ark"><g><path class="st1" d="M22.8 11h-1.6L15 27h3l1-3h2v3h2v-3h2l1 3h3l-6.2-16zM20 22l2-7.6 2 7.6h-4z"/></g></g></g><g id="Forma_1_1_" opacity=".4"><g id="Forma_1"><g><path class="st1" d="M42.1 9.2c-.8-.3-1.7 0-2 .8l-.8 2c-2.9-7.2-10-12-18-12C12.2 0 4.4 6.1 2.4 14.9c-.2.8.3 1.6 1.1 1.8.8.2 1.6-.3 1.8-1.1C7 8.2 13.5 3 21.3 3c6.8 0 12.6 4 15.1 9.9l-1.7-.7c-.8-.3-1.7 0-2 .8-.3.8 0 1.7.8 2l5.2 2.2c.2.1.4.1.6.1.2 0 .4 0 .6-.1.4-.1.6-.4.8-.8l2.2-5.1c.3-.9 0-1.8-.8-2.1zm-2.7 13.1c-.8-.2-1.6.3-1.8 1.1-1.7 7.4-8.3 12.7-16 12.7-6.8 0-12.6-4-15.1-10l1.8.8c.8.3 1.7 0 2-.8.3-.8 0-1.7-.8-2l-5.2-2.2c-.8-.3-1.7 0-2 .8L.1 27.8c-.3.8 0 1.7.8 2 .2.1.4.1.6.1.6 0 1.2-.4 1.4-1l.8-1.8C6.6 34.3 13.6 39 21.6 39c9.2 0 16.9-6.1 18.9-14.9.2-.8-.3-1.6-1.1-1.8z"/></g></g></g></g></switch></svg>
